X:123
T:Sunderland Lasses
Z:Jack Campin, http://www.campin.me.uk/
S:Northumbrian Minstrelsy
M:3/4
L:1/8
K:G
B2       G/A/B/c/ dB|G/A/B/c/ dBdg|B2       G/A/B/c/ dB|Ae`eA`ce:|
G/A/B/c/ dB```````gB|G/A/B/c/ dBdg|G/A/B/c/ dB```````gB|Ae`eA`ce:|
g2       d/e/f/g/ gd|Bd```````dGBd|g2       d/e/f/g/ gd|Ae`eA`ce:|

